bernoullicharts/0_5_x_1_0_5_x__mean.svg

<?xml version="1.0" encoding="utf-8" standalone="no"?>
<!DOCTYPE svg PUBLIC "-//W3C//DTD SVG 1.1//EN"
  "http://www.w3.org/Graphics/SVG/1.1/DTD/svg11.dtd">
<!-- Created with matplotlib (https://matplotlib.org/) -->
<svg height="345.6pt" version="1.1" viewBox="0 0 460.8 345.6" width="460.8pt" xmlns="http://www.w3.org/2000/svg" xmlns:xlink="http://www.w3.org/1999/xlink">
 <defs>
  <style type="text/css">
*{stroke-linecap:butt;stroke-linejoin:round;}
  </style>
 </defs>
 <g id="figure_1">
  <g id="patch_1">
   <path d="M 0 345.6 
L 460.8 345.6 
L 460.8 0 
L 0 0 
z
" style="fill:#ffffff;"/>
  </g>
  <g id="axes_1">
   <g id="patch_2">
    <path d="M 57.6 307.584 
L 414.72 307.584 
L 414.72 41.472 
L 57.6 41.472 
z
" style="fill:#ffffff;"/>
   </g>
   <g id="matplotlib.axis_1">
    <g id="xtick_1">
     <g id="line2d_1">
      <defs>
       <path d="M 0 0 
L 0 3.5 
" id="ma738b76d4c" style="stroke:#000000;stroke-width:0.8;"/>
      </defs>
      <g>
       <use style="stroke:#000000;stroke-width:0.8;" x="73.800255" xlink:href="#ma738b76d4c" y="307.584"/>
      </g>
     </g>
     <g id="text_1">
      <text style="font-family:DejaVu Sans;font-size:10px;font-style:normal;font-weight:normal;text-anchor:middle;" transform="rotate(-0, 73.800255, 322.182437)" x="73.800255" y="322.182437">0.0</text>
     </g>
    </g>
    <g id="xtick_2">
     <g id="line2d_2">
      <g>
       <use style="stroke:#000000;stroke-width:0.8;" x="138.744153" xlink:href="#ma738b76d4c" y="307.584"/>
      </g>
     </g>
     <g id="text_2">
      <text style="font-family:DejaVu Sans;font-size:10px;font-style:normal;font-weight:normal;text-anchor:middle;" transform="rotate(-0, 138.744153, 322.182437)" x="138.744153" y="322.182437">0.2</text>
     </g>
    </g>
    <g id="xtick_3">
     <g id="line2d_3">
      <g>
       <use style="stroke:#000000;stroke-width:0.8;" x="203.688051" xlink:href="#ma738b76d4c" y="307.584"/>
      </g>
     </g>
     <g id="text_3">
      <text style="font-family:DejaVu Sans;font-size:10px;font-style:normal;font-weight:normal;text-anchor:middle;" transform="rotate(-0, 203.688051, 322.182437)" x="203.688051" y="322.182437">0.4</text>
     </g>
    </g>
    <g id="xtick_4">
     <g id="line2d_4">
      <g>
       <use style="stroke:#000000;stroke-width:0.8;" x="268.631949" xlink:href="#ma738b76d4c" y="307.584"/>
      </g>
     </g>
     <g id="text_4">
      <text style="font-family:DejaVu Sans;font-size:10px;font-style:normal;font-weight:normal;text-anchor:middle;" transform="rotate(-0, 268.631949, 322.182437)" x="268.631949" y="322.182437">0.6</text>
     </g>
    </g>
    <g id="xtick_5">
     <g id="line2d_5">
      <g>
       <use style="stroke:#000000;stroke-width:0.8;" x="333.575847" xlink:href="#ma738b76d4c" y="307.584"/>
      </g>
     </g>
     <g id="text_5">
      <text style="font-family:DejaVu Sans;font-size:10px;font-style:normal;font-weight:normal;text-anchor:middle;" transform="rotate(-0, 333.575847, 322.182437)" x="333.575847" y="322.182437">0.8</text>
     </g>
    </g>
    <g id="xtick_6">
     <g id="line2d_6">
      <g>
       <use style="stroke:#000000;stroke-width:0.8;" x="398.519745" xlink:href="#ma738b76d4c" y="307.584"/>
      </g>
     </g>
     <g id="text_6">
      <text style="font-family:DejaVu Sans;font-size:10px;font-style:normal;font-weight:normal;text-anchor:middle;" transform="rotate(-0, 398.519745, 322.182437)" x="398.519745" y="322.182437">1.0</text>
     </g>
    </g>
    <g id="text_7">
     <text style="font-family:DejaVu Sans;font-size:10px;font-style:normal;font-weight:normal;text-anchor:middle;" transform="rotate(-0, 236.16, 335.860562)" x="236.16" y="335.860562">Input Coin's Heads Probability (λ)</text>
    </g>
   </g>
   <g id="matplotlib.axis_2">
    <g id="ytick_1">
     <g id="line2d_7">
      <defs>
       <path d="M 0 0 
L -3.5 0 
" id="m92e6ce8ff2" style="stroke:#000000;stroke-width:0.8;"/>
      </defs>
      <g>
       <use style="stroke:#000000;stroke-width:0.8;" x="57.6" xlink:href="#m92e6ce8ff2" y="295.488"/>
      </g>
     </g>
     <g id="text_8">
      <text style="font-family:DejaVu Sans;font-size:10px;font-style:normal;font-weight:normal;text-anchor:end;" transform="rotate(-0, 50.6, 299.287219)" x="50.6" y="299.287219">0.00</text>
     </g>
    </g>
    <g id="ytick_2">
     <g id="line2d_8">
      <g>
       <use style="stroke:#000000;stroke-width:0.8;" x="57.6" xlink:href="#m92e6ce8ff2" y="259.701018"/>
      </g>
     </g>
     <g id="text_9">
      <text style="font-family:DejaVu Sans;font-size:10px;font-style:normal;font-weight:normal;text-anchor:end;" transform="rotate(-0, 50.6, 263.500237)" x="50.6" y="263.500237">0.05</text>
     </g>
    </g>
    <g id="ytick_3">
     <g id="line2d_9">
      <g>
       <use style="stroke:#000000;stroke-width:0.8;" x="57.6" xlink:href="#m92e6ce8ff2" y="223.914036"/>
      </g>
     </g>
     <g id="text_10">
      <text style="font-family:DejaVu Sans;font-size:10px;font-style:normal;font-weight:normal;text-anchor:end;" transform="rotate(-0, 50.6, 227.713254)" x="50.6" y="227.713254">0.10</text>
     </g>
    </g>
    <g id="ytick_4">
     <g id="line2d_10">
      <g>
       <use style="stroke:#000000;stroke-width:0.8;" x="57.6" xlink:href="#m92e6ce8ff2" y="188.127053"/>
      </g>
     </g>
     <g id="text_11">
      <text style="font-family:DejaVu Sans;font-size:10px;font-style:normal;font-weight:normal;text-anchor:end;" transform="rotate(-0, 50.6, 191.926272)" x="50.6" y="191.926272">0.15</text>
     </g>
    </g>
    <g id="ytick_5">
     <g id="line2d_11">
      <g>
       <use style="stroke:#000000;stroke-width:0.8;" x="57.6" xlink:href="#m92e6ce8ff2" y="152.340071"/>
      </g>
     </g>
     <g id="text_12">
      <text style="font-family:DejaVu Sans;font-size:10px;font-style:normal;font-weight:normal;text-anchor:end;" transform="rotate(-0, 50.6, 156.13929)" x="50.6" y="156.13929">0.20</text>
     </g>
    </g>
    <g id="ytick_6">
     <g id="line2d_12">
      <g>
       <use style="stroke:#000000;stroke-width:0.8;" x="57.6" xlink:href="#m92e6ce8ff2" y="116.553089"/>
      </g>
     </g>
     <g id="text_13">
      <text style="font-family:DejaVu Sans;font-size:10px;font-style:normal;font-weight:normal;text-anchor:end;" transform="rotate(-0, 50.6, 120.352308)" x="50.6" y="120.352308">0.25</text>
     </g>
    </g>
    <g id="ytick_7">
     <g id="line2d_13">
      <g>
       <use style="stroke:#000000;stroke-width:0.8;" x="57.6" xlink:href="#m92e6ce8ff2" y="80.766107"/>
      </g>
     </g>
     <g id="text_14">
      <text style="font-family:DejaVu Sans;font-size:10px;font-style:normal;font-weight:normal;text-anchor:end;" transform="rotate(-0, 50.6, 84.565325)" x="50.6" y="84.565325">0.30</text>
     </g>
    </g>
    <g id="ytick_8">
     <g id="line2d_14">
      <g>
       <use style="stroke:#000000;stroke-width:0.8;" x="57.6" xlink:href="#m92e6ce8ff2" y="44.979124"/>
      </g>
     </g>
     <g id="text_15">
      <text style="font-family:DejaVu Sans;font-size:10px;font-style:normal;font-weight:normal;text-anchor:end;" transform="rotate(-0, 50.6, 48.778343)" x="50.6" y="48.778343">0.35</text>
     </g>
    </g>
    <g id="text_16">
     <text style="font-family:DejaVu Sans;font-size:10px;font-style:normal;font-weight:normal;text-anchor:middle;" transform="rotate(-90, 22.254687, 174.528)" x="22.254687" y="174.528">Simulated Mean / Function Value</text>
    </g>
   </g>
   <g id="line2d_15">
    <path clip-path="url(#pe675d86630)" d="M 73.832727 295.452215 
L 77.112066 291.856608 
L 80.391405 288.296947 
L 83.670744 284.772698 
L 86.950083 281.283334 
L 90.229421 277.828339 
L 93.50876 274.407209 
L 96.788099 271.019447 
L 100.067438 267.664569 
L 103.346777 264.342097 
L 106.626116 261.051564 
L 109.905455 257.792512 
L 113.184793 254.564491 
L 116.464132 251.367061 
L 119.743471 248.199788 
L 123.02281 245.062247 
L 126.302149 241.954023 
L 129.581488 238.874706 
L 132.860826 235.823894 
L 136.140165 232.801194 
L 139.419504 229.806219 
L 142.698843 226.838589 
L 145.978182 223.897932 
L 149.257521 220.983881 
L 152.53686 218.096076 
L 155.816198 215.234166 
L 159.095537 212.397803 
L 162.374876 209.586646 
L 165.654215 206.800361 
L 168.933554 204.03862 
L 172.212893 201.301099 
L 175.492231 198.587482 
L 178.77157 195.897456 
L 182.050909 193.230715 
L 185.330248 190.586959 
L 188.609587 187.965891 
L 191.888926 185.367221 
L 195.168264 182.790662 
L 198.447603 180.235934 
L 201.726942 177.70276 
L 205.006281 175.190869 
L 208.28562 172.699994 
L 211.564959 170.229872 
L 214.844298 167.780244 
L 218.123636 165.350857 
L 221.402975 162.941461 
L 224.682314 160.551811 
L 227.961653 158.181663 
L 231.240992 155.830781 
L 234.520331 153.498931 
L 237.799669 151.185883 
L 241.079008 148.891409 
L 244.358347 146.615288 
L 247.637686 144.357299 
L 250.917025 142.117227 
L 254.196364 139.89486 
L 257.475702 137.689989 
L 260.755041 135.502407 
L 264.03438 133.331913 
L 267.313719 131.178306 
L 270.593058 129.041391 
L 273.872397 126.920974 
L 277.151736 124.816864 
L 280.431074 122.728875 
L 283.710413 120.656822 
L 286.989752 118.600523 
L 290.269091 116.559799 
L 293.54843 114.534474 
L 296.827769 112.524374 
L 300.107107 110.529328 
L 303.386446 108.549168 
L 306.665785 106.583727 
L 309.945124 104.632843 
L 313.224463 102.696353 
L 316.503802 100.7741 
L 319.78314 98.865927 
L 323.062479 96.97168 
L 326.341818 95.091206 
L 329.621157 93.224357 
L 332.900496 91.370984 
L 336.179835 89.530943 
L 339.459174 87.704089 
L 342.738512 85.890282 
L 346.017851 84.089383 
L 349.29719 82.301253 
L 352.576529 80.525759 
L 355.855868 78.762765 
L 359.135207 77.012142 
L 362.414545 75.273758 
L 365.693884 73.547486 
L 368.973223 71.833201 
L 372.252562 70.130777 
L 375.531901 68.440092 
L 378.81124 66.761024 
L 382.090579 65.093455 
L 385.369917 63.437267 
L 388.649256 61.792344 
L 391.928595 60.158571 
L 395.207934 58.535835 
L 398.487273 56.924024 
" style="fill:none;stroke:#1f77b4;stroke-linecap:square;stroke-width:1.5;"/>
   </g>
   <g id="line2d_16">
    <path clip-path="url(#pe675d86630)" d="M 73.832727 295.488 
L 77.112066 288.330604 
L 80.391405 282.604686 
L 83.670744 286.899124 
L 86.950083 278.310249 
L 90.229421 271.152852 
L 93.50876 274.015811 
L 96.788099 268.289893 
L 100.067438 275.44729 
L 103.346777 252.543621 
L 106.626116 259.701018 
L 109.905455 248.249183 
L 113.184793 246.817704 
L 116.464132 263.995456 
L 119.743471 246.817704 
L 123.02281 258.269538 
L 126.302149 225.345515 
L 129.581488 232.502911 
L 132.860826 246.817704 
L 136.140165 232.502911 
L 139.419504 238.228828 
L 142.698843 245.386225 
L 145.978182 222.482556 
L 149.257521 213.89368 
L 152.53686 213.89368 
L 155.816198 216.756639 
L 159.095537 205.304805 
L 162.374876 203.873325 
L 165.654215 211.030722 
L 168.933554 202.441846 
L 172.212893 211.030722 
L 175.492231 215.32516 
L 178.77157 203.873325 
L 182.050909 212.462201 
L 185.330248 201.010367 
L 188.609587 183.832615 
L 191.888926 180.969657 
L 195.168264 169.517822 
L 198.447603 163.791905 
L 201.726942 175.24374 
L 205.006281 153.77155 
L 208.28562 178.106698 
L 211.564959 168.086343 
L 214.844298 188.127053 
L 218.123636 162.360426 
L 221.402975 148.045633 
L 224.682314 176.675219 
L 227.961653 132.299361 
L 231.240992 170.949302 
L 234.520331 135.16232 
L 237.799669 143.751195 
L 241.079008 165.223385 
L 244.358347 133.73084 
L 247.637686 119.416047 
L 250.917025 158.065988 
L 254.196364 160.928947 
L 257.475702 162.360426 
L 260.755041 152.340071 
L 264.03438 120.847527 
L 267.313719 152.340071 
L 270.593058 133.73084 
L 273.872397 125.141964 
L 277.151736 133.73084 
L 280.431074 103.669775 
L 283.710413 150.908592 
L 286.989752 109.395692 
L 290.269091 126.573444 
L 293.54843 109.395692 
L 296.827769 113.69013 
L 300.107107 113.69013 
L 303.386446 110.827172 
L 306.665785 93.64942 
L 309.945124 123.710485 
L 313.224463 83.629065 
L 316.503802 113.69013 
L 319.78314 125.141964 
L 323.062479 95.080899 
L 326.341818 77.903148 
L 329.621157 93.64942 
L 332.900496 63.588355 
L 336.179835 82.197586 
L 339.459174 105.101254 
L 342.738512 109.395692 
L 346.017851 83.629065 
L 349.29719 86.492024 
L 352.576529 92.217941 
L 355.855868 75.040189 
L 359.135207 76.471669 
L 362.414545 76.471669 
L 365.693884 72.177231 
L 368.973223 79.334627 
L 372.252562 67.882793 
L 375.531901 57.862438 
L 378.81124 70.745751 
L 382.090579 73.60871 
L 385.369917 65.019834 
L 388.649256 53.568 
L 391.928595 75.040189 
L 395.207934 73.60871 
L 398.487273 82.197586 
" style="fill:none;stroke:#ff7f0e;stroke-linecap:square;stroke-width:1.5;"/>
   </g>
   <g id="patch_3">
    <path d="M 57.6 307.584 
L 57.6 41.472 
" style="fill:none;stroke:#000000;stroke-linecap:square;stroke-linejoin:miter;stroke-width:0.8;"/>
   </g>
   <g id="patch_4">
    <path d="M 414.72 307.584 
L 414.72 41.472 
" style="fill:none;stroke:#000000;stroke-linecap:square;stroke-linejoin:miter;stroke-width:0.8;"/>
   </g>
   <g id="patch_5">
    <path d="M 57.6 307.584 
L 414.72 307.584 
" style="fill:none;stroke:#000000;stroke-linecap:square;stroke-linejoin:miter;stroke-width:0.8;"/>
   </g>
   <g id="patch_6">
    <path d="M 57.6 41.472 
L 414.72 41.472 
" style="fill:none;stroke:#000000;stroke-linecap:square;stroke-linejoin:miter;stroke-width:0.8;"/>
   </g>
   <g id="text_17">
    <text style="font-family:DejaVu Sans;font-size:12px;font-style:normal;font-weight:normal;text-anchor:middle;" transform="rotate(-0, 236.16, 35.472)" x="236.16" y="35.472">Expected Value in 0.5*x/(1+0.5*x) Algorithm</text>
   </g>
   <g id="legend_1">
    <g id="patch_7">
     <path d="M 64.6 78.82825 
L 273.110937 78.82825 
Q 275.110937 78.82825 275.110937 76.82825 
L 275.110937 48.472 
Q 275.110937 46.472 273.110937 46.472 
L 64.6 46.472 
Q 62.6 46.472 62.6 48.472 
L 62.6 76.82825 
Q 62.6 78.82825 64.6 78.82825 
z
" style="fill:#ffffff;opacity:0.8;stroke:#cccccc;stroke-linejoin:miter;"/>
    </g>
    <g id="line2d_17">
     <path d="M 66.6 54.570437 
L 86.6 54.570437 
" style="fill:none;stroke:#1f77b4;stroke-linecap:square;stroke-width:1.5;"/>
    </g>
    <g id="line2d_18"/>
    <g id="text_18">
     <text style="font-family:DejaVu Sans;font-size:10px;font-style:normal;font-weight:normal;text-anchor:start;" transform="rotate(-0, 94.6, 58.070437)" x="94.6" y="58.070437">0.5*x/(1+0.5*x)</text>
    </g>
    <g id="line2d_19">
     <path d="M 66.6 69.248562 
L 86.6 69.248562 
" style="fill:none;stroke:#ff7f0e;stroke-linecap:square;stroke-width:1.5;"/>
    </g>
    <g id="line2d_20"/>
    <g id="text_19">
     <text style="font-family:DejaVu Sans;font-size:10px;font-style:normal;font-weight:normal;text-anchor:start;" transform="rotate(-0, 94.6, 72.748562)" x="94.6" y="72.748562">Simulated Mean of 0.5*x/(1+0.5*x)</text>
    </g>
   </g>
  </g>
 </g>
 <defs>
  <clipPath id="pe675d86630">
   <rect height="266.112" width="357.12" x="57.6" y="41.472"/>
  </clipPath>
 </defs>
</svg>

<svg height="460.8" viewBox="0 0 460.8 345.6" width="614.4" xmlns="http://www.w3.org/2000/svg" xmlns:xlink="http://www.w3.org/1999/xlink"><defs><style>*{stroke-linecap:butt;stroke-linejoin:round}</style></defs><g id="figure_1"><path d="M0 345.6h460.8V0H0z" fill="#fff" id="patch_1"/><g id="axes_1"><path d="M57.6 307.584h357.12V41.472H57.6z" fill="#fff" id="patch_2"/><g id="matplotlib.axis_1"><g id="xtick_1"><g id="line2d_1"><defs><path d="M0 0v3.5" id="ma738b76d4c" stroke="#000" stroke-width=".8"/></defs><use x="73.8" xlink:href="#ma738b76d4c" y="307.584" stroke="#000" stroke-width=".8"/></g><text x="73.8" y="322.182" font-family="DejaVu Sans" font-size="10" font-weight="400" text-anchor="middle" id="text_1">0.0</text></g><g id="xtick_2"><use x="138.744" xlink:href="#ma738b76d4c" y="307.584" stroke="#000" stroke-width=".8" id="line2d_2"/><text x="138.744" y="322.182" font-family="DejaVu Sans" font-size="10" font-weight="400" text-anchor="middle" id="text_2">0.2</text></g><g id="xtick_3"><use x="203.688" xlink:href="#ma738b76d4c" y="307.584" stroke="#000" stroke-width=".8" id="line2d_3"/><text x="203.688" y="322.182" font-family="DejaVu Sans" font-size="10" font-weight="400" text-anchor="middle" id="text_3">0.4</text></g><g id="xtick_4"><use x="268.632" xlink:href="#ma738b76d4c" y="307.584" stroke="#000" stroke-width=".8" id="line2d_4"/><text x="268.632" y="322.182" font-family="DejaVu Sans" font-size="10" font-weight="400" text-anchor="middle" id="text_4">0.6</text></g><g id="xtick_5"><use x="333.576" xlink:href="#ma738b76d4c" y="307.584" stroke="#000" stroke-width=".8" id="line2d_5"/><text x="333.576" y="322.182" font-family="DejaVu Sans" font-size="10" font-weight="400" text-anchor="middle" id="text_5">0.8</text></g><g id="xtick_6"><use x="398.52" xlink:href="#ma738b76d4c" y="307.584" stroke="#000" stroke-width=".8" id="line2d_6"/><text x="398.52" y="322.182" font-family="DejaVu Sans" font-size="10" font-weight="400" text-anchor="middle" id="text_6">1.0</text></g><text x="236.16" y="335.861" font-family="DejaVu Sans" font-size="10" font-weight="400" text-anchor="middle" id="text_7">Input Coin&apos;s Heads Probability (λ)</text></g><g id="matplotlib.axis_2"><g id="ytick_1"><g id="line2d_7"><defs><path d="M0 0h-3.5" id="m92e6ce8ff2" stroke="#000" stroke-width=".8"/></defs><use x="57.6" xlink:href="#m92e6ce8ff2" y="295.488" stroke="#000" stroke-width=".8"/></g><text x="50.6" y="299.287" font-family="DejaVu Sans" font-size="10" font-weight="400" text-anchor="end" id="text_8">0.00</text></g><g id="ytick_2"><use x="57.6" xlink:href="#m92e6ce8ff2" y="259.701" stroke="#000" stroke-width=".8" id="line2d_8"/><text x="50.6" y="263.5" font-family="DejaVu Sans" font-size="10" font-weight="400" text-anchor="end" id="text_9">0.05</text></g><g id="ytick_3"><use x="57.6" xlink:href="#m92e6ce8ff2" y="223.914" stroke="#000" stroke-width=".8" id="line2d_9"/><text x="50.6" y="227.713" font-family="DejaVu Sans" font-size="10" font-weight="400" text-anchor="end" id="text_10">0.10</text></g><g id="ytick_4"><use x="57.6" xlink:href="#m92e6ce8ff2" y="188.127" stroke="#000" stroke-width=".8" id="line2d_10"/><text x="50.6" y="191.926" font-family="DejaVu Sans" font-size="10" font-weight="400" text-anchor="end" id="text_11">0.15</text></g><g id="ytick_5"><use x="57.6" xlink:href="#m92e6ce8ff2" y="152.34" stroke="#000" stroke-width=".8" id="line2d_11"/><text x="50.6" y="156.139" font-family="DejaVu Sans" font-size="10" font-weight="400" text-anchor="end" id="text_12">0.20</text></g><g id="ytick_6"><use x="57.6" xlink:href="#m92e6ce8ff2" y="116.553" stroke="#000" stroke-width=".8" id="line2d_12"/><text x="50.6" y="120.352" font-family="DejaVu Sans" font-size="10" font-weight="400" text-anchor="end" id="text_13">0.25</text></g><g id="ytick_7"><use x="57.6" xlink:href="#m92e6ce8ff2" y="80.766" stroke="#000" stroke-width=".8" id="line2d_13"/><text x="50.6" y="84.565" font-family="DejaVu Sans" font-size="10" font-weight="400" text-anchor="end" id="text_14">0.30</text></g><g id="ytick_8"><use x="57.6" xlink:href="#m92e6ce8ff2" y="44.979" stroke="#000" stroke-width=".8" id="line2d_14"/><text x="50.6" y="48.778" font-family="DejaVu Sans" font-size="10" font-weight="400" text-anchor="end" id="text_15">0.35</text></g><text transform="rotate(-90 22.255 174.528)" x="22.255" y="174.528" font-family="DejaVu Sans" font-size="10" font-weight="400" text-anchor="middle" id="text_16">Simulated Mean / Function Value</text></g><path clip-path="url(#pe675d86630)" d="M73.833 295.452l3.28-3.595 3.278-3.56 3.28-3.524 3.28-3.49 3.278-3.455 3.28-3.42 3.28-3.389 3.278-3.354 3.28-3.323 3.28-3.29 3.278-3.26 3.28-3.228 3.28-3.197 3.278-3.167 3.28-3.138 3.28-3.108 3.278-3.08 3.28-3.05 3.28-3.023 3.279-2.995 3.279-2.967 3.28-2.941 3.279-2.914 3.279-2.888 3.28-2.862 3.279-2.836 3.279-2.811 3.28-2.787 3.279-2.761 3.279-2.738 3.28-2.714 3.279-2.69 3.279-2.666 3.28-2.644 3.279-2.621 3.279-2.599 3.28-2.576 3.279-2.555 3.279-2.533 3.28-2.512 3.279-2.491 3.279-2.47 3.28-2.45 3.279-2.43 3.279-2.409 3.28-2.39 3.279-2.37 3.279-2.35 3.28-2.332 3.279-2.313 3.279-2.295 3.28-2.276 3.279-2.258 3.279-2.24 3.28-2.222 3.279-2.205 3.279-2.188 3.28-2.17 3.279-2.154 3.28-2.137 3.278-2.12 3.28-2.104 3.28-2.088 3.278-2.072 3.28-2.056 3.28-2.041 3.278-2.026 3.28-2.01 3.28-1.995 3.278-1.98 3.28-1.965 3.28-1.951 3.278-1.937 3.28-1.922 3.28-1.908 3.278-1.894 3.28-1.88 3.28-1.868 3.278-1.853 3.28-1.84 3.28-1.827 3.279-1.814 3.279-1.8 3.28-1.789 3.279-1.775 3.279-1.763 3.28-1.75 3.279-1.74 3.279-1.726 3.28-1.714 3.279-1.702 3.279-1.69 3.28-1.68 3.279-1.668 3.279-1.656 3.28-1.645 3.279-1.633 3.279-1.623 3.28-1.612" fill="none" stroke="#1f77b4" stroke-linecap="square" stroke-width="1.5" id="line2d_15"/><path clip-path="url(#pe675d86630)" d="M73.833 295.488l3.28-7.157 3.278-5.726 3.28 4.294 3.28-8.589 3.278-7.157 3.28 2.863 3.28-5.726 3.278 7.157 3.28-22.903 3.28 7.157 3.278-11.452 3.28-1.431 3.28 17.177 3.278-17.177 3.28 11.452 3.28-32.924 3.278 7.157 3.28 14.315 3.28-14.315 3.279 5.726 3.279 7.157 3.28-22.903 3.279-8.59h3.279l3.28 2.864 3.279-11.452 3.279-1.432 3.28 7.158 3.279-8.59 3.279 8.59 3.28 4.294 3.279-11.452 3.279 8.59 3.28-11.453 3.279-17.177 3.279-2.863 3.28-11.452 3.279-5.726 3.279 11.452 3.28-21.472 3.279 24.335 3.279-10.02 3.28 20.04 3.279-25.767 3.279-14.314 3.28 28.63 3.279-44.377 3.279 38.65 3.28-35.787 3.279 8.59 3.279 21.471 3.28-31.492 3.279-14.315 3.279 38.65 3.28 2.863 3.279 1.431 3.279-10.02 3.28-31.492 3.279 31.492 3.28-18.61 3.278-8.588 3.28 8.589 3.28-30.061 3.278 47.239 3.28-41.513 3.28 17.177 3.278-17.177 3.28 4.294h3.28l3.278-2.863 3.28-17.178 3.28 30.061 3.278-40.08 3.28 30.06 3.28 11.452 3.278-30.061 3.28-17.178 3.28 15.746 3.278-30.06 3.28 18.609 3.28 22.903 3.279 4.295 3.279-25.767 3.28 2.863 3.279 5.726 3.279-17.178 3.28 1.432h3.279l3.279-4.295 3.28 7.158 3.279-11.452 3.279-10.02 3.28 12.883 3.279 2.863 3.279-8.59 3.28-11.451 3.279 21.472 3.279-1.431 3.28 8.589" fill="none" stroke="#ff7f0e" stroke-linecap="square" stroke-width="1.5" id="line2d_16"/><path d="M57.6 307.584V41.472" fill="none" stroke="#000" stroke-linecap="square" stroke-width=".8" id="patch_3"/><path d="M414.72 307.584V41.472" fill="none" stroke="#000" stroke-linecap="square" stroke-width=".8" id="patch_4"/><path d="M57.6 307.584h357.12" fill="none" stroke="#000" stroke-linecap="square" stroke-width=".8" id="patch_5"/><path d="M57.6 41.472h357.12" fill="none" stroke="#000" stroke-linecap="square" stroke-width=".8" id="patch_6"/><text x="236.16" y="35.472" font-family="DejaVu Sans" font-size="12" font-weight="400" text-anchor="middle" id="text_17">Expected Value in 0.5*x/(1+0.5*x) Algorithm</text><g id="legend_1"><path d="M64.6 78.828h208.51q2 0 2-2V48.472q0-2-2-2H64.6q-2 0-2 2v28.356q0 2 2 2z" fill="#fff" opacity=".8" stroke="#ccc" id="patch_7"/><path d="M66.6 54.57h20" fill="none" stroke="#1f77b4" stroke-linecap="square" stroke-width="1.5" id="line2d_17"/><text x="94.6" y="58.07" font-family="DejaVu Sans" font-size="10" font-weight="400" id="text_18">0.5*x/(1+0.5*x)</text><path d="M66.6 69.249h20" fill="none" stroke="#ff7f0e" stroke-linecap="square" stroke-width="1.5" id="line2d_19"/><text x="94.6" y="72.749" font-family="DejaVu Sans" font-size="10" font-weight="400" id="text_19">Simulated Mean of 0.5*x/(1+0.5*x)</text></g></g></g><defs><clipPath id="pe675d86630"><path d="M57.6 41.472h357.12v266.112H57.6z"/></clipPath></defs></svg>
